assets/gcpcloudrun/original.svg

<svg height="24" width="24" xmlns="http://www.w3.org/2000/svg"><g fill-rule="evenodd"><path d="m8.9 2.63 3.12 9.37h9.36z" fill="#aecbfa"/><path d="m21.38 12h-9.36l-3.12 9.38zm-17.94 9.38 3.13-1.57 2.33-7.81h-3.12z" fill="#4285f4"/><path d="m3.44 2.63 2.34 9.37h3.12l-2.33-7.81z" fill="#aecbfa"/></g></svg>

<svg xmlns="http://www.w3.org/2000/svg" width="24" height="24"><g fill-rule="evenodd"><path fill="#aecbfa" d="M8.9 2.63 12.02 12h9.36z"/><path fill="#4285f4" d="M21.38 12h-9.36L8.9 21.38zM3.44 21.38l3.13-1.57L8.9 12H5.78z"/><path fill="#aecbfa" d="M3.44 2.63 5.78 12H8.9L6.57 4.19z"/></g></svg>
